apps/mobile/assets/icons/phosphor/text-b-bold.svg

<svg
  height="32"
  viewBox="0 0 256 256"
  width="32"
  xmlns="http://www.w3.org/2000/svg"
>
  <path
    d="m185.08 114.46a48 48 0 0 0 -37.08-78.46h-68a12 12 0 0 0 -12 12v152a12 12 0 0 0 12 12h80a52 52 0 0 0 25.08-97.54zm-93.08-54.46h56a24 24 0 0 1 0 48h-56zm68 128h-68v-56h68a28 28 0 0 1 0 56z"
  />
</svg>

<svg xmlns="http://www.w3.org/2000/svg" width="32" height="32" fill="#000000" viewBox="0 0 256 256"><path d="M185.08,114.46A48,48,0,0,0,148,36H80A12,12,0,0,0,68,48V200a12,12,0,0,0,12,12h80a52,52,0,0,0,25.08-97.54ZM92,60h56a24,24,0,0,1,0,48H92Zm68,128H92V132h68a28,28,0,0,1,0,56Z"></path></svg>
